Simply-Orange-Circles/scalable/places/folder-system.svg

<?xml version="1.0" encoding="UTF-8" standalone="no"?>
<svg
   xmlns:dc="http://purl.org/dc/elements/1.1/"
   xmlns:cc="http://creativecommons.org/ns#"
   xmlns:rdf="http://www.w3.org/1999/02/22-rdf-syntax-ns#"
   xmlns:svg="http://www.w3.org/2000/svg"
   xmlns="http://www.w3.org/2000/svg"
   xmlns:sodipodi="http://sodipodi.sourceforge.net/DTD/sodipodi-0.dtd"
   xmlns:inkscape="http://www.inkscape.org/namespaces/inkscape"
   width="48"
   height="48"
   viewBox="0 0 12.7 12.7"
   version="1.1"
   id="svg4"
   sodipodi:docname="folder-system.svg"
   inkscape:version="0.92.4 (5da689c313, 2019-01-14)">
  <metadata
     id="metadata10">
    <rdf:RDF>
      <cc:Work
         rdf:about="">
        <dc:format>image/svg+xml</dc:format>
        <dc:type
           rdf:resource="http://purl.org/dc/dcmitype/StillImage" />
        <dc:title></dc:title>
      </cc:Work>
    </rdf:RDF>
  </metadata>
  <defs
     id="defs8" />
  <sodipodi:namedview
     pagecolor="#ffffff"
     bordercolor="#666666"
     borderopacity="1"
     objecttolerance="10"
     gridtolerance="10"
     guidetolerance="10"
     inkscape:pageopacity="0"
     inkscape:pageshadow="2"
     inkscape:window-width="1085"
     inkscape:window-height="480"
     id="namedview6"
     showgrid="false"
     inkscape:zoom="4.9166667"
     inkscape:cx="2.1355932"
     inkscape:cy="24"
     inkscape:window-x="0"
     inkscape:window-y="25"
     inkscape:window-maximized="0"
     inkscape:current-layer="svg4" />
  <path
     d="m 6.344,0.073 a 6.29,6.29 0 0 0 -6.289,6.29 6.29,6.29 0 0 0 6.29,6.288 6.29,6.29 0 0 0 6.288,-6.289 6.29,6.29 0 0 0 -6.289,-6.29 z M 6.326,1.009 A 5.407,5.407 0 0 1 11.733,6.416 5.407,5.407 0 0 1 6.326,11.823 5.407,5.407 0 0 1 0.92000003,6.416 5.407,5.407 0 0 1 6.326,1.01 Z M 5.097,2.311 4.706,3.258 A 2.407,2.407 0 0 0 4.22,3.312 L 3.64,2.475 A 3.33,3.33 0 0 0 3.062,2.755 L 3.306,3.739 A 2.428,2.428 0 0 0 2.949,4.065 L 1.991,3.732 A 3.318,3.318 0 0 0 1.677,4.296 L 2.449,4.943 A 2.318,2.318 0 0 0 2.387,5.175 2.343,2.343 0 0 0 2.353,5.414 L 1.39,5.708 C 1.393,5.926 1.414,6.14 1.458,6.349 l 1.013,0.069 c 0.052,0.152 0.12,0.3 0.2,0.438 L 2.063,7.667 C 2.193,7.84 2.325,8.005 2.486,8.151 L 3.346,7.606 C 3.478,7.7 3.622,7.78 3.773,7.846 L 3.763,8.871 A 3.418,3.418 0 0 0 4.381,8.996 L 4.773,8.049 C 4.937,8.047 5.102,8.029 5.258,7.995 l 0.58,0.838 A 3.32,3.32 0 0 0 6.416,8.553 L 6.172,7.568 C 6.301,7.472 6.422,7.363 6.529,7.243 L 7.487,7.575 A 3.318,3.318 0 0 0 7.797,7.02 L 7.98,7.405 A 1.417,1.417 0 0 0 7.814,7.633 L 7.228,7.554 A 1.936,1.936 0 0 0 7.114,7.913 l 0.516,0.28 a 1.352,1.352 0 0 0 -0.008,0.14 c 0,0.048 0.003,0.093 0.008,0.14 L 7.114,8.753 C 7.141,8.878 7.178,8.997 7.228,9.112 L 7.814,9.032 C 7.862,9.114 7.918,9.191 7.98,9.26 L 7.727,9.795 c 0.094,0.083 0.188,0.163 0.297,0.227 l 0.43,-0.411 c 0.085,0.038 0.177,0.067 0.27,0.088 l 0.114,0.586 a 1.994,1.994 0 0 0 0.368,0 L 9.32,9.698 C 9.413,9.678 9.5060003,9.648 9.5910003,9.61 L 10.021,10.022 C 10.129,9.958 10.224,9.878 10.318,9.794 L 10.064,9.26 A 1.43,1.43 0 0 0 10.23,9.032 l 0.586,0.08 a 1.936,1.936 0 0 0 0.115,-0.36 l -0.517,-0.28 c 0.005,-0.046 0.009,-0.09 0.009,-0.14 0,-0.048 -0.004,-0.092 -0.01,-0.14 l 0.518,-0.28 A 1.935,1.935 0 0 0 10.816,7.554 L 10.23,7.632 A 1.417,1.417 0 0 0 10.064,7.405 L 10.318,6.871 A 1.947,1.947 0 0 0 10.02,6.643 L 9.5900003,7.055 A 1.405,1.405 0 0 0 9.32,6.967 L 9.206,6.38 A 1.994,1.994 0 0 0 9.022,6.373 C 8.961,6.373 8.899,6.375 8.838,6.38 L 8.725,6.967 A 1.404,1.404 0 0 0 8.453,7.054 L 8.024,6.644 A 1.945,1.945 0 0 0 7.727,6.871 L 7.788,7 7.03,6.364 C 7.054,6.287 7.076,6.214 7.092,6.132 7.109,6.05 7.117,5.974 7.125,5.894 L 8.09,5.6 A 3.317,3.317 0 0 0 8.02,4.958 L 7.009,4.89 A 2.428,2.428 0 0 0 6.807,4.45 L 7.417,3.64 A 3.349,3.349 0 0 0 6.994,3.156 L 6.132,3.7 A 2.408,2.408 0 0 0 5.706,3.46 L 5.715,2.436 A 3.418,3.418 0 0 0 5.41,2.36 C 5.306,2.339 5.2,2.327 5.098,2.31 Z M 4.68,4.215 A 1.44,1.44 0 0 1 5.026,4.242 1.4408723,1.4408723 0 1 1 4.452,7.066 1.44,1.44 0 0 1 4.68,4.215 Z m 4.342,3.278 a 0.84,0.84 0 1 1 0,1.68 0.84,0.84 0 0 1 0,-1.68 z"
     id="path2"
     inkscape:connector-curvature="0"
     style="fill:#ff7f2a" />
</svg>

<svg xmlns="http://www.w3.org/2000/svg" width="48" height="48" viewBox="0 0 12.7 12.7"><path fill="#ff7f2a" d="M6.34.07a6.29 6.29 0 0 0-6.28 6.3 6.29 6.29 0 0 0 6.29 6.28 6.29 6.29 0 0 0 6.28-6.29A6.29 6.29 0 0 0 6.34.07zm-.01.94a5.4 5.4 0 0 1 5.4 5.4 5.4 5.4 0 0 1-5.4 5.41 5.4 5.4 0 0 1-5.41-5.4A5.4 5.4 0 0 1 6.32 1zM5.1 2.3l-.4.95a2.4 2.4 0 0 0-.48.05l-.58-.84a3.33 3.33 0 0 0-.58.28l.25.99a2.43 2.43 0 0 0-.36.32l-.96-.33a3.32 3.32 0 0 0-.31.57l.77.64a2.32 2.32 0 0 0-.06.23 2.34 2.34 0 0 0-.04.24l-.96.3c0 .22.02.43.07.64l1.01.07c.05.15.12.3.2.44l-.6.8c.12.18.26.34.42.5l.86-.55c.13.09.27.17.42.24v1.02a3.42 3.42 0 0 0 .61.13l.4-.95c.16 0 .32-.02.48-.05l.58.83a3.32 3.32 0 0 0 .58-.28l-.25-.98c.13-.1.25-.2.36-.33l.96.34a3.32 3.32 0 0 0 .3-.56l.19.39a1.42 1.42 0 0 0-.17.22l-.58-.08a1.94 1.94 0 0 0-.12.36l.52.28a1.35 1.35 0 0 0 0 .14v.14l-.52.28c.03.13.07.25.12.36l.58-.08c.05.08.1.16.17.23l-.25.54c.1.08.19.16.3.22l.42-.4.27.08.12.59a2 2 0 0 0 .37 0l.11-.6c.1-.01.19-.04.27-.08l.43.41c.1-.06.2-.14.3-.23l-.26-.53a1.43 1.43 0 0 0 .17-.23l.59.08a1.94 1.94 0 0 0 .11-.36l-.52-.28a1.25 1.25 0 0 0 0-.28l.52-.28a1.94 1.94 0 0 0-.11-.36l-.59.08a1.42 1.42 0 0 0-.17-.22l.26-.54a1.95 1.95 0 0 0-.3-.23l-.43.42a1.4 1.4 0 0 0-.27-.1l-.11-.58a2 2 0 0 0-.19 0h-.18l-.11.59a1.4 1.4 0 0 0-.28.08l-.43-.4a1.95 1.95 0 0 0-.3.22L7.8 7l-.76-.64a2.13 2.13 0 0 0 .1-.47l.96-.29a3.32 3.32 0 0 0-.07-.64l-1.01-.07a2.43 2.43 0 0 0-.2-.44l.6-.81A3.35 3.35 0 0 0 7 3.16l-.86.54a2.4 2.4 0 0 0-.42-.24V2.44a3.42 3.42 0 0 0-.3-.08l-.31-.05zm-.42 1.9a1.44 1.44 0 0 1 .35.03 1.44 1.44 0 1 1-.58 2.83 1.44 1.44 0 0 1 .23-2.86zM9.02 7.5a.84.84 0 1 1 0 1.68.84.84 0 0 1 0-1.68z"/></svg>
